X:1
T:He Careth for Me (Brock)
T:He Careth for Me (Brock)
T:Blanche Kerr Brock
T:Virgil Prentiss Brock, 1918
T:Public Domain Courtesy of the Cyber Hymnal™
T:Public Domain Courtesy of the Cyber Hymnal™
C:Blanche Kerr Brock
Z:Public Domain
Z:Courtesy of the Cyber Hymnal™
%%score ( 1 2 ) ( 3 4 )
L:1/8
Q:1/4=95
M:6/8
K:Bb
V:1 treble 
V:2 treble 
V:3 bass 
V:4 bass 
V:1
 [DF]"^Parts"[DF][DF] [DF][B,D][CE] | [DF][DG][DB] [B,D]3 | %2
w: 1.~Je- sus, my Sav- ior, is|pre- cious to me,|
w: 2.~Tho’ storms and temp- ests may|break o’er my soul,|
w: 3.~When I am tempt- ed and|wan- der a- stray,|
w: 4.~Tho’ my path leads me where|dan- gers be- tide,|
"^Unison" (z [B,D][B,D]) F[B,DG][B,DB] x | (z [EF][EF] A2) ([EF][EF]) | %4
w: * * He car- eth|* * * for *|
w: * * He car- eth|* * * for *|
w: * * He car- eth|* * * for *|
w: * * He car- eth|* * * for *|
"^Parts" [EG][EG][EG] [EG][E^F][EG] | [EA][EB][Ec] [EG]3 | %6
w: * me; Lov- ing and keep-|ing me hap- py|
w: * me; Safe- ly I’m kept|un- der Je- sus’|
w: * me; When I grow wear-|y and faint by|
w: * me; Still He is with|me, my shield and|
"^Unison" (z [B,C=E][B,CE]) B[B,CEA][B,CEG] x | z [EFA][EFA] [EFAc]2"^Refrain" z |: %8
w: * * and free, He||
w: * * con- trol, He||
w: * * the way, He||
w: * * my guide, He||
"^Unison" z [B,D][B,D] [B,DF][B,DG][B,DB] x | z [EF][EF] A2 ([EF][EF]) | %10
w: * * car- eth for|* * * me. *|
w: * * car- eth for|* * * me. *|
w: * * car- eth for|* * * me. *|
w: * * car- eth for|* * * me. *|
 z [EF][EF] [EFA][EFB][EFc] x | z [DF][DF] B2 ([DF][DF]) |"^Parts" [Fd]3 [Fd][Ge][Fd] x2 | %13
w: |||
w: |||
w: |||
w: |||
 [=Ec]3 [EG]3 x4 |1 [FA]3 [=EB][EA][EB] | [Ec]3- [Ec]2 z x2 :|2 [EA]3 [EA][DB][Ec] x2 || %17
w: ||||
w: ||||
w: ||||
w: ||||
 [DB]3- [DB]2 z |] %18
w: |
w: |
w: |
w: |
V:2
 x6 | x6 | F3 x4 | A3- [EF] x3 | x6 | x6 | c3 x4 | c3- x3 |: F3 x4 | A3- [EF] x3 | A3 x4 | %11
 B3- [DF] x3 | x8 | x10 |1 x6 | x8 :|2 x8 || x6 |] %18
V:3
 [B,,B,][B,,B,][B,,B,] [B,,B,][B,,F,][B,,F,] | [B,,B,][B,,B,][B,,F,] [B,,F,]3 | F,3 z F,G,B, | %3
w: ~ ~ ~ ~ ~ ~|~ ~ ~ ~|~ ~ ~ ~|
 A,3- z [F,,A,]2 z | [F,A,][F,A,][F,A,] [F,A,][F,A,][F,A,] | [F,C][F,G,][F,A,] [F,A,]3 | %6
w: ~ ~|* ~ ~ ~ ~ ~|~ ~ ~ ~|
 C3 z B,A,G, | C3- C2 x |: F,3 z F,G,B, | A,3- (z [F,,A,]2) z | A,3 z A,B,C | B,3- (z [B,,B,]2) z | %12
w: ~ ~ ~ ~|~ *|He car- eth for|me, *|* He car- eth|for *|
 z z [B,,B,] [B,,B,] x4 | z z x8 |1 (z [G,C])[G,C] [C,C] x2 | (z [F,A,]2) x5 :|2 %16
w: me, He||* loves and||
 (z [F,C])[F,B,] [F,A,] x4 || [B,,B,]3- [B,,B,]2 z |] %18
w: * He keeps|me, *|
V:4
 x6 | x6 | B,,2 F,,2 x3 | C,2 x5 | x6 | x6 | C,2 C,2 x3 | (F,G,F, E,D,C,) |: B,,2 F,,2 x3 | %9
 C,2 x5 | C,2 F,,2 x3 | B,,2 x5 | ([B,,B,]3 D,F,) (B,,3 | [C,B,]3 =E,G,) ([C,C]3 B,G,) |1 %14
 ([F,C]3 A,C) x | ([F,A,-]3 G,F, E,D,C,) :|2 ([F,C]3 C,A,,) F,,3 || x6 |] %18

